public/shapes/characters/335.svg

<?xml version="1.0" encoding="UTF-8"?>
<svg width="50.75px" height="138.7px" version="1.1" xmlns="http://www.w3.org/2000/svg" xmlns:cc="http://creativecommons.org/ns#" xmlns:dc="http://purl.org/dc/elements/1.1/" xmlns:rdf="http://www.w3.org/1999/02/22-rdf-syntax-ns#">
 <metadata>
  <rdf:RDF>
   <cc:Work rdf:about="">
    <dc:format>image/svg+xml</dc:format>
    <dc:type rdf:resource="http://purl.org/dc/dcmitype/StillImage"/>
    <dc:title/>
   </cc:Work>
  </rdf:RDF>
 </metadata>
 <path d="m15.339 135.93h21.05v-88.768l9.9538-3.1004 2.6108-23.497-2.6108-13.87-38.346-0.81588-6.5271 8.322 1.7949 26.924 6.3639 6.8534 6.3639 0.32635z" fill="#fff"/>
 <g transform="translate(25.4 69.35)" fill-rule="evenodd">
  <path d="m-8.35 8.45v4.05q3.2 1.95 6.9 2.45 5.9 0.85 10.75-2.6v-3.65q-2.05 1.35-5.3 2-6.5 1.25-12.35-2.25m7.4 8.55q-3.75-0.4-7.4-2.25v50.85h17.65v-50.9q-4.7 2.85-10.25 2.3m22.4-82.25q3.9 4.1 3.9 9.85v22q0 5.5-3.6 9.5-3.55 4.05-8.75 4.4v88.85h-24.75v-88.8h-0.3q-5.5 0-9.45-4.1-3.9-4.1-3.9-9.85v-22q0-5.75 3.9-9.85 3.95-4.1 9.45-4.1h24.05q5.5 0 9.45 4.1m0 31.85v-22l-0.15-1.9q-2.25-4.8-8.6-4.65-11.75 5.7-23.05 0.15v0.1q-2.2-0.5-4.7 0-5 0.9-6.45 5.65v22.65q0 4.15 2.8 7.1 2.75 2.95 6.65 2.95h24.05q3.9 0 6.7-2.95 2.75-2.95 2.75-7.1"/>
  <path d="m-3.5-29.95-5.15-1.85-0.5-0.7 0.15-0.85 0.7-0.45 0.8 0.1 4.5 1.6q5.3 0.95 10.6-1.65l0.85-0.05 0.65 0.55 0.05 0.85-0.55 0.65q-6.05 2.9-12.1 1.8"/>
  <path d="m-9.35-44.7q0 1.1-0.8 1.85-0.75 0.8-1.85 0.8t-1.9-0.8q-0.8-0.75-0.8-1.85t0.8-1.9 1.9-0.8 1.85 0.8q0.8 0.8 0.8 1.9"/>
  <path d="m12-42.05q-1.1 0-1.9-0.8-0.8-0.75-0.8-1.85t0.8-1.9 1.9-0.8 1.85 0.8q0.8 0.8 0.8 1.9t-0.8 1.85q-0.75 0.8-1.85 0.8"/>
 </g>
</svg>

<?xml version="1.0" encoding="UTF-8" standalone="no"?>
<svg xmlns:xlink="http://www.w3.org/1999/xlink" height="138.7px" width="50.75px" xmlns="http://www.w3.org/2000/svg">
  <g transform="matrix(1.0, 0.0, 0.0, 1.0, 25.4, 69.35)">
    <path d="M-8.35 8.45 L-8.35 12.5 Q-5.15 14.45 -1.45 14.95 4.45 15.8 9.3 12.35 L9.3 8.7 Q7.25 10.05 4.0 10.7 -2.5 11.95 -8.35 8.45 M-0.95 17.0 Q-4.7 16.6 -8.35 14.75 L-8.35 65.6 9.3 65.6 9.3 14.7 Q4.6 17.55 -0.95 17.0 M21.45 -65.25 Q25.35 -61.15 25.35 -55.4 L25.35 -33.4 Q25.35 -27.9 21.75 -23.9 18.2 -19.85 13.0 -19.5 L13.0 69.35 -11.75 69.35 -11.75 -19.45 -12.05 -19.45 Q-17.55 -19.45 -21.5 -23.55 -25.4 -27.65 -25.4 -33.4 L-25.4 -55.4 Q-25.4 -61.15 -21.5 -65.25 -17.55 -69.35 -12.05 -69.35 L12.0 -69.35 Q17.5 -69.35 21.45 -65.25 M21.45 -33.4 L21.45 -55.4 21.3 -57.3 Q19.05 -62.1 12.7 -61.95 0.95 -56.25 -10.35 -61.8 L-10.35 -61.7 Q-12.55 -62.2 -15.05 -61.7 -20.05 -60.8 -21.5 -56.05 L-21.5 -33.4 Q-21.5 -29.25 -18.7 -26.3 -15.95 -23.35 -12.05 -23.35 L12.0 -23.35 Q15.9 -23.35 18.7 -26.3 21.45 -29.25 21.45 -33.4" fill="#000000" fill-rule="evenodd" stroke="none"/>
    <path d="M-3.5 -29.95 L-8.65 -31.8 -9.15 -32.5 -9.0 -33.35 -8.3 -33.8 -7.5 -33.7 -3.0 -32.1 Q2.3 -31.15 7.6 -33.75 L8.45 -33.8 9.1 -33.25 9.15 -32.4 8.6 -31.75 Q2.55 -28.85 -3.5 -29.95" fill="#000000" fill-rule="evenodd" stroke="none"/>
    <path d="M-9.35 -44.7 Q-9.35 -43.6 -10.15 -42.85 -10.9 -42.05 -12.0 -42.05 -13.1 -42.05 -13.9 -42.85 -14.7 -43.6 -14.7 -44.7 -14.7 -45.8 -13.9 -46.6 -13.1 -47.4 -12.0 -47.4 -10.9 -47.4 -10.15 -46.6 -9.35 -45.8 -9.35 -44.7" fill="#000000" fill-rule="evenodd" stroke="none"/>
    <path d="M12.0 -42.05 Q10.9 -42.05 10.1 -42.85 9.3 -43.6 9.3 -44.7 9.3 -45.8 10.1 -46.6 10.9 -47.4 12.0 -47.4 13.1 -47.4 13.85 -46.6 14.65 -45.8 14.65 -44.7 14.65 -43.6 13.85 -42.85 13.1 -42.05 12.0 -42.05" fill="#000000" fill-rule="evenodd" stroke="none"/>
  </g>
</svg>
